icons/badge/remove/square.svg

<svg width="32" height="32" viewBox="0 0 32 32" fill="none" xmlns="http://www.w3.org/2000/svg">
<path fill-rule="evenodd" clip-rule="evenodd" d="M4.66663 2.66669C3.56206 2.66669 2.66663 3.56212 2.66663 4.66669V27.3334C2.66663 28.4379 3.56206 29.3334 4.66663 29.3334H27.3333C28.4379 29.3334 29.3333 28.4379 29.3333 27.3334V4.66669C29.3333 3.56212 28.4379 2.66669 27.3333 2.66669H4.66663ZM4.66663 4.66669L27.3333 4.66669V27.3334H4.66663V4.66669ZM9 17H23V15H9V17Z" fill="black"/>
</svg>

<svg viewBox="0 0 32 32" xmlns="http://www.w3.org/2000/svg"><path fill-rule="evenodd" d="M4.667 2.667a2 2 0 00-2 2v22.666a2 2 0 002 2h22.666a2 2 0 002-2V4.667a2 2 0 00-2-2H4.667zm0 2h22.666v22.666H4.667V4.667zM9 17h14v-2H9v2z"/></svg>
